material/.icons/material/file-replace-outline.svg

<svg xmlns="http://www.w3.org/2000/svg" viewBox="0 0 24 24"><path d="M14 3l-2-2H4a2 2 0 00-2 2v12a2 2 0 002 2h7v2l4-3-4-3v2H4V3h10m7 7v11a2 2 0 01-2 2H8a2 2 0 01-2-2v-2h2v2h11v-9h-5V7H8v6H6V7a2 2 0 012-2h8l5 5z"/></svg>

<?xml version="1.0" encoding="UTF-8"?><!DOCTYPE svg PUBLIC "-//W3C//DTD SVG 1.1//EN" "http://www.w3.org/Graphics/SVG/1.1/DTD/svg11.dtd"><svg xmlns="http://www.w3.org/2000/svg" xmlns:xlink="http://www.w3.org/1999/xlink" version="1.1" id="mdi-file-replace-outline" width="24" height="24" viewBox="0 0 24 24"><path d="M14,3L12,1H4A2,2 0 0,0 2,3V15A2,2 0 0,0 4,17H11V19L15,16L11,13V15H4V3H14M21,10V21A2,2 0 0,1 19,23H8A2,2 0 0,1 6,21V19H8V21H19V12H14V7H8V13H6V7A2,2 0 0,1 8,5H16L21,10Z" /></svg>
